src/pos-icons/water-percent.svg

<svg height="24" viewBox="0 0 24 24" width="24" xmlns="http://www.w3.org/2000/svg"><path d="m12 3.25s-6 6.75-6 10.75c0 3.32 2.69 6 6 6a6 6 0 0 0 6-6c0-4-6-10.75-6-10.75m2.47 6.72 1.06 1.06-6 6-1.06-1.06m1.28-5.97a1.25 1.25 0 0 1 1.25 1.25 1.25 1.25 0 0 1 -1.25 1.25 1.25 1.25 0 0 1 -1.25-1.25 1.25 1.25 0 0 1 1.25-1.25m4.5 4.5a1.25 1.25 0 0 1 1.25 1.25 1.25 1.25 0 0 1 -1.25 1.25 1.25 1.25 0 0 1 -1.25-1.25 1.25 1.25 0 0 1 1.25-1.25z"/></svg>

<?xml version="1.0" encoding="UTF-8"?><!DOCTYPE svg PUBLIC "-//W3C//DTD SVG 1.1//EN" "http://www.w3.org/Graphics/SVG/1.1/DTD/svg11.dtd"><svg xmlns="http://www.w3.org/2000/svg" xmlns:xlink="http://www.w3.org/1999/xlink" version="1.1" id="mdi-water-percent" width="24" height="24" viewBox="0 0 24 24"><path d="M12,3.25C12,3.25 6,10 6,14C6,17.32 8.69,20 12,20A6,6 0 0,0 18,14C18,10 12,3.25 12,3.25M14.47,9.97L15.53,11.03L9.53,17.03L8.47,15.97M9.75,10A1.25,1.25 0 0,1 11,11.25A1.25,1.25 0 0,1 9.75,12.5A1.25,1.25 0 0,1 8.5,11.25A1.25,1.25 0 0,1 9.75,10M14.25,14.5A1.25,1.25 0 0,1 15.5,15.75A1.25,1.25 0 0,1 14.25,17A1.25,1.25 0 0,1 13,15.75A1.25,1.25 0 0,1 14.25,14.5Z" /></svg>
